icons/line/tag.svg

<svg width="24" height="24" viewBox="0 0 24 24" fill="none" xmlns="http://www.w3.org/2000/svg">
<path fill-rule="evenodd" clip-rule="evenodd" d="M4 5C4 4.44772 4.44772 4 5 4H11.1716C11.4368 4 11.6911 4.10536 11.8787 4.29289L19.8787 12.2929C20.2692 12.6834 20.2692 13.3166 19.8787 13.7071L13.7071 19.8787C13.3166 20.2692 12.6834 20.2692 12.2929 19.8787L4.29289 11.8787C4.10536 11.6911 4 11.4368 4 11.1716V5ZM5 2C3.34315 2 2 3.34315 2 5V11.1716C2 11.9672 2.31607 12.7303 2.87868 13.2929L10.8787 21.2929C12.0503 22.4645 13.9497 22.4645 15.1213 21.2929L21.2929 15.1213C22.4645 13.9497 22.4645 12.0503 21.2929 10.8787L13.2929 2.87868C12.7303 2.31607 11.9672 2 11.1716 2H5ZM7 6C6.44772 6 6 6.44772 6 7C6 7.55228 6.44772 8 7 8H7.01C7.56228 8 8.01 7.55228 8.01 7C8.01 6.44772 7.56228 6 7.01 6H7Z" fill="currentColor"/>
</svg>

<svg width="24" height="24" fill="none" xmlns="http://www.w3.org/2000/svg"><path fill-rule="evenodd" clip-rule="evenodd" d="M4 5a1 1 0 011-1h6.172a1 1 0 01.707.293l8 8a1 1 0 010 1.414l-6.172 6.172a1 1 0 01-1.414 0l-8-8A1 1 0 014 11.172V5zm1-3a3 3 0 00-3 3v6.172a3 3 0 00.879 2.12l8 8a3 3 0 004.242 0l6.172-6.17a3 3 0 000-4.243l-8-8A3 3 0 0011.172 2H5zm2 4a1 1 0 000 2h.01a1 1 0 000-2H7z" fill="currentColor"/></svg>
